X:1
T:[ID 5-34]
T:[ID 5-34]
T:Bezeichnung standardisiert: Menuett Menuet
T:Urheber unbekannt Datum in der hier transkribierten schriftlichen Quelle: 1773
C:Urheber unbekannt
C:Datum in der hier transkribierten schriftlichen Quelle: 1773
%%score 1 2
L:1/8
M:3/4
K:D
V:1 treble 
V:2 treble 
V:1
 df a2 a2 | a4 fd | Ae g2 g2 | g4 ec | d2 fg a2 | A2 ce g2 | f2 a2 f2 |{g} e2 e2 z2 :: Ac e2 e2 | %9
 e4 cA | de f2 f2 | f2 ef d2 | A2 g2 f2 | e4 z2 | DF A2 A2 | A4 FE | DF A2 A2 | A4 FE | d2 f2 e2 | %19
 d6 :| %20
V:2
 !fermata!de f2 f2 | f4 ed | cd e2 e2 | e4 cA | d2 e2 f2 | A2 c2 e2 | d2 e2 d2 | c2 c2 z2 :: %8
 AB c2 c2 | c4 AG | FA d2 d2 | d4 cd | A2 e2 d2 | c4 z2 | de f2 f2 | f4 e2 | de f2 f2 | f4 e2 | %18
 d2 A2 G2 | F6 :| %20

